dist/svg/u1F1F9.svg

<svg id="Layer_1" data-name="Layer 1" xmlns="http://www.w3.org/2000/svg" viewBox="0 0 40 40"><defs><style>.cls-1{fill:#afb7c0;}.cls-2{fill:none;}</style></defs><path class="cls-1" d="M28.854,7.1a4.405,4.405,0,0,1,4.4,4.4v17a4.405,4.405,0,0,1-4.4,4.4h-17a4.4,4.4,0,0,1-4.4-4.4v-17a4.4,4.4,0,0,1,4.4-4.4h17m0-3.6h-17a8,8,0,0,0-8,8v17a8,8,0,0,0,8,8h17a8,8,0,0,0,8-8v-17a8,8,0,0,0-8-8Z"/><path class="cls-1" d="M22.262,29.009H18.446V14.439H13.237V11.1H27.471v3.336H22.262Z"/><rect class="cls-2" width="40" height="40"/></svg>

<?xml version="1.0" encoding="UTF-8"?><svg id="a" xmlns="http://www.w3.org/2000/svg" viewBox="0 0 40 40"><g><path d="M28.854,3.5H11.854C7.435,3.5,3.854,7.082,3.854,11.5V28.5c0,4.418,3.582,8,8,8H28.854c4.418,0,8-3.582,8-8V11.5c0-4.418-3.582-8-8-8Zm4.4,25c0,2.426-1.974,4.4-4.4,4.4H11.854c-2.426,0-4.4-1.974-4.4-4.4V11.5c0-2.426,1.974-4.4,4.4-4.4H28.854c2.426,0,4.4,1.974,4.4,4.4V28.5Z" fill="#afb7c0"/><polygon points="13.237 14.439 18.446 14.439 18.446 29.009 22.262 29.009 22.262 14.439 27.471 14.439 27.471 11.103 13.237 11.103 13.237 14.439" fill="#afb7c0"/></g><rect width="40" height="40" fill="none"/></svg>
